svg/Tango/actions/media-seek-backward.svg

<?xml version="1.0" encoding="UTF-8" standalone="no"?>
<!-- Created with Inkscape (http://www.inkscape.org/) -->
<svg
   xmlns:dc="http://purl.org/dc/elements/1.1/"
   xmlns:cc="http://creativecommons.org/ns#"
   xmlns:rdf="http://www.w3.org/1999/02/22-rdf-syntax-ns#"
   xmlns:svg="http://www.w3.org/2000/svg"
   xmlns="http://www.w3.org/2000/svg"
   xmlns:xlink="http://www.w3.org/1999/xlink"
   xmlns:sodipodi="http://sodipodi.sourceforge.net/DTD/sodipodi-0.dtd"
   xmlns:inkscape="http://www.inkscape.org/namespaces/inkscape"
   width="48px"
   height="48px"
   id="svg1307"
   sodipodi:version="0.32"
   inkscape:version="0.46"
   sodipodi:docbase="/home/jimmac/src/cvs/tango-icon-theme/scalable/actions"
   sodipodi:docname="media-seek-backward.svg"
   inkscape:export-filename="/home/lapo/Desktop/Grafica/Icone/media-actions-outlines.png"
   inkscape:export-xdpi="90"
   inkscape:export-ydpi="90"
   inkscape:output_extension="org.inkscape.output.svg.inkscape">
  <defs
     id="defs1309">
    <inkscape:perspective
       sodipodi:type="inkscape:persp3d"
       inkscape:vp_x="0 : 24 : 1"
       inkscape:vp_y="0 : 1000 : 0"
       inkscape:vp_z="48 : 24 : 1"
       inkscape:persp3d-origin="24 : 16 : 1"
       id="perspective58" />
    <linearGradient
       id="linearGradient2316">
      <stop
         style="stop-color:#000000;stop-opacity:1;"
         offset="0"
         id="stop2318" />
      <stop
         style="stop-color:#ffffff;stop-opacity:0.65979379;"
         offset="1"
         id="stop2320" />
    </linearGradient>
    <linearGradient
       id="linearGradient2584">
      <stop
         style="stop-color:#000000;stop-opacity:1;"
         offset="0"
         id="stop2586" />
      <stop
         style="stop-color:#ffffff;stop-opacity:0;"
         offset="1"
         id="stop2588" />
    </linearGradient>
    <linearGradient
       id="linearGradient5075">
      <stop
         style="stop-color:#adb0a8;stop-opacity:1;"
         offset="0"
         id="stop5077" />
      <stop
         style="stop-color:#464744;stop-opacity:1"
         offset="1"
         id="stop5079" />
    </linearGradient>
    <linearGradient
       id="linearGradient2679"
       inkscape:collect="always">
      <stop
         id="stop2681"
         offset="0"
         style="stop-color:#ffffff;stop-opacity:1" />
      <stop
         id="stop2683"
         offset="1"
         style="stop-color:#d3d7cf" />
    </linearGradient>
    <linearGradient
       id="linearGradient2591">
      <stop
         id="stop2593"
         offset="0"
         style="stop-color:#ffffff;stop-opacity:1;" />
      <stop
         id="stop2595"
         offset="1"
         style="stop-color:#eeeeec;stop-opacity:0" />
    </linearGradient>
    <linearGradient
       inkscape:collect="always"
       id="linearGradient8662">
      <stop
         style="stop-color:#000000;stop-opacity:1;"
         offset="0"
         id="stop8664" />
      <stop
         style="stop-color:#000000;stop-opacity:0;"
         offset="1"
         id="stop8666" />
    </linearGradient>
    <radialGradient
       inkscape:collect="always"
       xlink:href="#linearGradient8662"
       id="radialGradient1932"
       gradientUnits="userSpaceOnUse"
       gradientTransform="matrix(1,0,0,0.536723,4.095103e-13,16.87306)"
       cx="24.837126"
       cy="36.421127"
       fx="24.837126"
       fy="36.421127"
       r="15.644737" />
    <linearGradient
       inkscape:collect="always"
       xlink:href="#linearGradient5075"
       id="linearGradient1401"
       gradientUnits="userSpaceOnUse"
       gradientTransform="translate(-47.9996,-121)"
       x1="54.988514"
       y1="156"
       x2="54.896976"
       y2="142.18799" />
    <linearGradient
       inkscape:collect="always"
       xlink:href="#linearGradient2584"
       id="linearGradient1426"
       gradientUnits="userSpaceOnUse"
       gradientTransform="translate(-44.99051,-97.26213)"
       x1="49.430401"
       y1="112.94963"
       x2="49.667324"
       y2="115.13713" />
    <radialGradient
       inkscape:collect="always"
       xlink:href="#linearGradient2679"
       id="radialGradient1436"
       gradientUnits="userSpaceOnUse"
       gradientTransform="matrix(0.222659,-0.996273,2.129992,0.476041,-290.946,20.8517)"
       cx="64.227074"
       cy="147.99352"
       fx="64.227074"
       fy="147.99352"
       r="8.75" />
    <radialGradient
       inkscape:collect="always"
       xlink:href="#linearGradient2679"
       id="radialGradient1439"
       gradientUnits="userSpaceOnUse"
       gradientTransform="matrix(0.222659,-0.996273,2.129992,0.476041,-308.946,20.8517)"
       cx="64.227074"
       cy="147.99352"
       fx="64.227074"
       fy="147.99352"
       r="8.75" />
    <linearGradient
       inkscape:collect="always"
       xlink:href="#linearGradient2316"
       id="linearGradient2322"
       x1="24.476166"
       y1="13.658564"
       x2="23.750401"
       y2="36"
       gradientUnits="userSpaceOnUse" />
  </defs>
  <sodipodi:namedview
     id="base"
     pagecolor="#ffffff"
     bordercolor="#666666"
     borderopacity="0.15294118"
     inkscape:pageopacity="0.0"
     inkscape:pageshadow="2"
     inkscape:zoom="8"
     inkscape:cx="44.949418"
     inkscape:cy="17.655272"
     inkscape:current-layer="layer1"
     showgrid="false"
     inkscape:grid-bbox="true"
     inkscape:document-units="px"
     inkscape:grid-points="true"
     fill="#fcaf3e"
     showguides="false"
     inkscape:guide-bbox="true"
     guidetolerance="1px"
     stroke="#729fcf"
     inkscape:window-width="1144"
     inkscape:window-height="808"
     inkscape:window-x="290"
     inkscape:window-y="34"
     showborder="true"
     inkscape:showpageshadow="false"
     borderlayer="top">
    <sodipodi:guide
       orientation="horizontal"
       position="38.996647"
       id="guide2194" />
    <sodipodi:guide
       orientation="horizontal"
       position="9.0140845"
       id="guide2196" />
    <sodipodi:guide
       orientation="vertical"
       position="9.0140845"
       id="guide2198" />
    <sodipodi:guide
       orientation="vertical"
       position="38.975184"
       id="guide2200" />
    <sodipodi:guide
       orientation="horizontal"
       position="22.988281"
       id="guide2202" />
    <sodipodi:guide
       orientation="vertical"
       position="23.908786"
       id="guide2204" />
    <sodipodi:guide
       orientation="vertical"
       position="157.99417"
       id="guide4332" />
    <sodipodi:guide
       orientation="horizontal"
       position="-36.062446"
       id="guide4334" />
    <sodipodi:guide
       orientation="horizontal"
       position="-58.02695"
       id="guide4336" />
    <sodipodi:guide
       orientation="vertical"
       position="180.00287"
       id="guide4338" />
    <sodipodi:guide
       orientation="vertical"
       position="107.92217"
       id="guide4417" />
    <sodipodi:guide
       orientation="vertical"
       position="129.93087"
       id="guide4419" />
    <sodipodi:guide
       orientation="horizontal"
       position="19.996875"
       id="guide5106" />
    <sodipodi:guide
       orientation="horizontal"
       position="63.039674"
       id="guide5119" />
    <sodipodi:guide
       orientation="horizontal"
       position="49.066305"
       id="guide5121" />
    <sodipodi:guide
       orientation="horizontal"
       position="-87.043372"
       id="guide5307" />
    <sodipodi:guide
       orientation="horizontal"
       position="-102.03286"
       id="guide5309" />
    <sodipodi:guide
       orientation="horizontal"
       position="-100.04058"
       id="guide3111" />
    <sodipodi:guide
       orientation="horizontal"
       position="-92.545841"
       id="guide1879" />
    <inkscape:grid
       id="GridFromPre046Settings"
       type="xygrid"
       originx="0px"
       originy="0px"
       spacingx="0.5px"
       spacingy="0.5px"
       color="#0000ff"
       empcolor="#0000ff"
       opacity="0.2"
       empopacity="0.4"
       empspacing="2" />
  </sodipodi:namedview>
  <metadata
     id="metadata1312">
    <rdf:RDF>
      <cc:Work
         rdf:about="">
        <dc:format>image/svg+xml</dc:format>
        <dc:type
           rdf:resource="http://purl.org/dc/dcmitype/StillImage" />
        <dc:title>Media Seek Backward</dc:title>
        <dc:creator>
          <cc:Agent>
            <dc:title>Lapo Calamandrei</dc:title>
          </cc:Agent>
        </dc:creator>
        <cc:license
           rdf:resource="http://creativecommons.org/licenses/publicdomain/" />
      </cc:Work>
      <cc:License
         rdf:about="http://creativecommons.org/licenses/publicdomain/">
        <cc:permits
           rdf:resource="http://creativecommons.org/ns#Reproduction" />
        <cc:permits
           rdf:resource="http://creativecommons.org/ns#Distribution" />
        <cc:permits
           rdf:resource="http://creativecommons.org/ns#DerivativeWorks" />
      </cc:License>
    </rdf:RDF>
  </metadata>
  <g
     id="layer1"
     inkscape:label="Layer 1"
     inkscape:groupmode="layer"
     style="display:inline">
    <path
       inkscape:r_cy="true"
       inkscape:r_cx="true"
       sodipodi:nodetypes="cccccccc"
       id="path1441"
       d="M 23.5004,13.5 L 6.0004,24 L 23.5004,34.5 L 23.5004,13.5 z M 41.5004,13.5 L 24.0004,24 L 41.5004,34.5 L 41.5004,13.5 z "
       style="color:#000000;fill:none;fill-opacity:1;fill-rule:evenodd;stroke:url(#linearGradient2322);stroke-width:3;stroke-linecap:square;stroke-linejoin:round;marker:none;marker-start:none;marker-mid:none;marker-end:none;stroke-miterlimit:4;stroke-dasharray:none;stroke-dashoffset:0;stroke-opacity:1;visibility:visible;display:inline;overflow:visible;opacity:0.15" />
    <path
       inkscape:r_cy="true"
       inkscape:r_cx="true"
       inkscape:export-ydpi="90"
       inkscape:export-xdpi="90"
       inkscape:export-filename="/home/lapo/Desktop/Grafica/Icone/media-actions.png"
       sodipodi:nodetypes="cccc"
       id="path5515"
       d="M 23.5004,13.5 L 6.0004,24 L 23.5004,34.5 L 23.5004,13.5 z "
       style="color:#000000;fill:url(#radialGradient1439);fill-opacity:1;fill-rule:evenodd;stroke:none;stroke-width:1.0000006;stroke-linecap:square;stroke-linejoin:miter;marker:none;marker-start:none;marker-mid:none;marker-end:none;stroke-miterlimit:4;stroke-dasharray:none;stroke-dashoffset:0;stroke-opacity:1;visibility:visible;display:inline;overflow:visible" />
    <path
       inkscape:r_cy="true"
       inkscape:r_cx="true"
       style="color:#000000;fill:url(#radialGradient1436);fill-opacity:1;fill-rule:evenodd;stroke:none;stroke-width:1.0000006;stroke-linecap:square;stroke-linejoin:miter;marker:none;marker-start:none;marker-mid:none;marker-end:none;stroke-miterlimit:4;stroke-dasharray:none;stroke-dashoffset:0;stroke-opacity:1;visibility:visible;display:inline;overflow:visible"
       d="M 41.5004,13.5 L 24.0004,24 L 41.5004,34.5 L 41.5004,13.5 z "
       id="use5517"
       sodipodi:nodetypes="cccc"
       inkscape:export-filename="/home/lapo/Desktop/Grafica/Icone/media-actions.png"
       inkscape:export-xdpi="90"
       inkscape:export-ydpi="90" />
    <path
       inkscape:r_cy="true"
       inkscape:r_cx="true"
       sodipodi:nodetypes="ccccccccc"
       style="opacity:0.07027025;color:#000000;fill:url(#linearGradient1426);fill-opacity:1;fill-rule:evenodd;stroke:none;stroke-width:1;stroke-linecap:round;stroke-linejoin:round;marker:none;marker-start:none;marker-mid:none;marker-end:none;stroke-miterlimit:4;stroke-dasharray:none;stroke-dashoffset:0;stroke-opacity:1;visibility:visible;display:inline;overflow:visible"
       d="M 41.5004,13.5 L 40.3129,14.21875 L 41.5004,14.09375 L 41.5004,13.5 z M 23.5004,13.75 L 23.03165,13.78125 L 19.0629,16.15625 L 23.5004,15.75 L 23.5004,13.75 z "
       id="path2915" />
    <path
       style="color:#000000;fill:none;fill-opacity:1;fill-rule:evenodd;stroke:url(#linearGradient1401);stroke-width:1.0000006;stroke-linecap:square;stroke-linejoin:round;marker:none;marker-start:none;marker-mid:none;marker-end:none;stroke-miterlimit:4;stroke-dasharray:none;stroke-dashoffset:0;stroke-opacity:1;visibility:visible;display:inline;overflow:visible"
       d="M 23.5004,13.5 L 6.0004,24 L 23.5004,34.5 L 23.5004,13.5 z M 41.5004,13.5 L 24.0004,24 L 41.5004,34.5 L 41.5004,13.5 z "
       id="path5521"
       sodipodi:nodetypes="cccccccc"
       inkscape:r_cx="true"
       inkscape:r_cy="true" />
    <path
       style="color:#000000;fill:#ffffff;fill-opacity:1;fill-rule:evenodd;stroke:none;stroke-width:3;stroke-linecap:square;stroke-linejoin:miter;marker:none;marker-start:none;marker-mid:none;marker-end:none;stroke-miterlimit:4;stroke-dasharray:none;stroke-dashoffset:0;stroke-opacity:1;visibility:visible;display:inline;overflow:visible"
       d="M 23.0004,14.375 L 6.96915,24 L 23.0004,33.625 L 23.0004,14.375 z M 41.0004,14.375 L 24.96915,24 L 41.0004,33.625 L 41.0004,14.375 z M 22.0004,16.15625 L 22.0004,31.84375 L 8.90665,24 L 22.0004,16.15625 z M 40.0004,16.15625 L 40.0004,31.84375 L 26.90665,24 L 40.0004,16.15625 z "
       id="path5525"
       sodipodi:nodetypes="cccccccccccccccc"
       inkscape:r_cx="true"
       inkscape:r_cy="true" />
    <path
       style="opacity:0.56111111;color:#000000;fill:#ffffff;fill-opacity:1;fill-rule:evenodd;stroke:none;stroke-width:3;stroke-linecap:square;stroke-linejoin:round;marker:none;marker-start:none;marker-mid:none;marker-end:none;stroke-miterlimit:4;stroke-dasharray:none;stroke-dashoffset:0;stroke-opacity:1;visibility:visible;display:inline;overflow:visible"
       d="M 9.9375,23.375 L 21.9375,16.1875 L 21.9375,22.9375 L 9.9375,23.375 z "
       id="path3197"
       inkscape:r_cx="true"
       inkscape:r_cy="true" />
    <path
       inkscape:r_cy="true"
       inkscape:r_cx="true"
       id="path4072"
       d="M 29.3125,22.5 L 40,16.1875 L 40,21.9375 L 29.3125,22.5 z "
       style="opacity:0.56111109;color:#000000;fill:#ffffff;fill-opacity:1;fill-rule:evenodd;stroke:none;stroke-width:3;stroke-linecap:square;stroke-linejoin:round;marker:none;marker-start:none;marker-mid:none;marker-end:none;stroke-miterlimit:4;stroke-dasharray:none;stroke-dashoffset:0;stroke-opacity:1;visibility:visible;display:inline;overflow:visible"
       sodipodi:nodetypes="cccc" />
  </g>
</svg>

<svg xmlns="http://www.w3.org/2000/svg" xmlns:xlink="http://www.w3.org/1999/xlink" viewBox="0 0 48 48"><defs><linearGradient id="2" gradientUnits="userSpaceOnUse" x1="4.44" y1="15.688" x2="4.677" y2="17.875"><stop/><stop offset="1" stop-color="#fff" stop-opacity="0"/></linearGradient><linearGradient id="5" x1="24.476" y1="13.659" x2="23.75" y2="36" gradientUnits="userSpaceOnUse"><stop/><stop offset="1" stop-color="#fff" stop-opacity=".66"/></linearGradient><linearGradient id="1" gradientUnits="userSpaceOnUse" x1="6.989" y1="35" x2="6.897" y2="21.19"><stop stop-color="#adb0a8"/><stop offset="1" stop-color="#464744"/></linearGradient><linearGradient id="0"><stop stop-color="#fff"/><stop offset="1" stop-color="#d3d7cf"/></linearGradient><radialGradient xlink:href="#0" id="4" gradientUnits="userSpaceOnUse" gradientTransform="matrix(.22266-.99627 2.12999.47604-308.95 20.852)" cx="64.23" cy="147.99" r="8.75"/><radialGradient xlink:href="#0" id="3" gradientUnits="userSpaceOnUse" gradientTransform="matrix(.22266-.99627 2.12999.47604-290.95 20.852)" cx="64.23" cy="147.99" r="8.75"/></defs><g fill-rule="evenodd" color="#000"><path d="m23.5 13.5l-17.5 10.5 17.5 10.5v-21zm18 0l-17.5 10.5 17.5 10.5v-21z" opacity=".15" stroke-width="3" stroke-linecap="square" fill="none" stroke-linejoin="round" stroke="url(#5)"/><path d="m23.5 13.5l-17.5 10.5 17.5 10.5v-21" fill="url(#4)"/><path d="m41.5 13.5l-17.5 10.5 17.5 10.5v-21" fill="url(#3)"/><path d="m41.5 13.5l-1.188.719 1.188-.125v-.594m-18 .25l-.469.031-3.969 2.375 4.438-.406v-2" opacity=".07" fill="url(#2)"/><path d="m23.5 13.5l-17.5 10.5 17.5 10.5v-21zm18 0l-17.5 10.5 17.5 10.5v-21z" stroke-linecap="square" fill="none" stroke-linejoin="round" stroke="url(#1)"/><g fill="#fff"><path d="m23 14.375l-16.03 9.625 16.03 9.625v-19.25m18 0l-16.03 9.625 16.03 9.625v-19.25m-19 1.781v15.688l-13.09-7.844 13.09-7.844m18 0v15.688l-13.09-7.844 13.09-7.844"/><path d="m9.938 23.375l12-7.188v6.75l-12 .438" opacity=".561"/><path d="m29.31 22.5l10.688-6.313v5.75l-10.688.563" opacity=".561"/></g></g></svg>
